public/svg/white/xmo.svg

<svg width="32" height="32" viewBox="0 0 32 32" version="1.1" xmlns="http://www.w3.org/2000/svg" xmlns:xlink="http://www.w3.org/1999/xlink"><title>white/xmo</title><desc>Created with Sketch.</desc><g id="white/xmo" stroke="none" stroke-width="1" fill="none" fill-rule="evenodd"><path d="M16,32 C7.163444,32 0,24.836556 0,16 C0,7.163444 7.163444,0 16,0 C24.836556,0 32,7.163444 32,16 C32,24.836556 24.836556,32 16,32 Z M28,16 C28,13.31875 27.11875,10.84375 25.61875,8.846875 L23.659375,10.80625 C24.690625,12.334375 25.253125,14.134375 25.253125,16 C25.253125,21.109375 21.1,25.2625 15.990625,25.2625 C10.88125,25.2625 6.728125,21.109375 6.728125,16 C6.728125,14.14375 7.28125,12.334375 8.321875,10.80625 L6.3625,8.846875 C4.88125,10.84375 4,13.31875 4,16 C4,22.628125 9.371875,28 16,28 C22.628125,28 28,22.628125 28,16 Z M22.6375,16 C22.6375,14.846875 22.3375,13.7125 21.765625,12.709375 L16,18.475 L10.234375,12.709375 C9.6625,13.7125 9.3625,14.846875 9.3625,16 C9.3625,19.665625 12.34375,22.6375 16,22.6375 C19.65625,22.6375 22.6375,19.665625 22.6375,16 Z M23.846875,6.925 C21.7375,5.096875 19,4 16,4 C13,4 10.253125,5.096875 8.153125,6.925 L10.01875,8.790625 L16,14.7625 L23.846875,6.925 Z" id="Combined-Shape" fill="#FFF" fill-rule="nonzero"/></g></svg>

<svg width="32" height="32" viewBox="0 0 32 32" xmlns="http://www.w3.org/2000/svg"><path d="M16 32C7.163 32 0 24.837 0 16S7.163 0 16 0s16 7.163 16 16-7.163 16-16 16zm12-16a11.86 11.86 0 00-2.381-7.153l-1.96 1.96A9.272 9.272 0 0125.253 16c0 5.11-4.153 9.262-9.262 9.262-5.11 0-9.263-4.153-9.263-9.262a9.22 9.22 0 011.594-5.194l-1.96-1.96A11.969 11.969 0 004 16c0 6.628 5.372 12 12 12s12-5.372 12-12zm-5.363 0a6.65 6.65 0 00-.871-3.29L16 18.474l-5.766-5.766A6.644 6.644 0 009.363 16 6.644 6.644 0 0016 22.637 6.644 6.644 0 0022.637 16zm1.21-9.075A11.925 11.925 0 0016 4c-3 0-5.747 1.097-7.847 2.925l1.866 1.866L16 14.762l7.847-7.837z" fill="#FFF"/></svg>
